src/Assests/SVG/social/instagram.svg

<svg width="32" height="32" viewBox="0 0 32 32" fill="none" xmlns="http://www.w3.org/2000/svg">
<g clip-path="url(#clip0_99_515)">
<path d="M19.772 8.40267C18.788 8.35733 18.492 8.34933 16 8.34933C13.508 8.34933 13.2133 8.35867 12.2293 8.40267C9.69733 8.51867 8.51867 9.71733 8.40267 12.2293C8.35867 13.2133 8.348 13.508 8.348 16C8.348 18.492 8.35867 18.7867 8.40267 19.772C8.51867 22.2773 9.692 23.4827 12.2293 23.5987C13.212 23.6427 13.508 23.6533 16 23.6533C18.4933 23.6533 18.788 23.644 19.772 23.5987C22.304 23.484 23.4813 22.2813 23.5987 19.772C23.6427 18.788 23.652 18.492 23.652 16C23.652 13.508 23.6427 13.2133 23.5987 12.2293C23.4813 9.71867 22.3013 8.51867 19.772 8.40267ZM16 20.7933C13.3533 20.7933 11.2067 18.648 11.2067 16C11.2067 13.3533 13.3533 11.208 16 11.208C18.6467 11.208 20.7933 13.3533 20.7933 16C20.7933 18.6467 18.6467 20.7933 16 20.7933ZM20.9827 12.1387C20.364 12.1387 19.8627 11.6373 19.8627 11.0187C19.8627 10.4 20.364 9.89867 20.9827 9.89867C21.6013 9.89867 22.1027 10.4 22.1027 11.0187C22.1027 11.636 21.6013 12.1387 20.9827 12.1387ZM19.1107 16C19.1107 17.7187 17.7173 19.1107 16 19.1107C14.2827 19.1107 12.8893 17.7187 12.8893 16C12.8893 14.2813 14.2827 12.8893 16 12.8893C17.7173 12.8893 19.1107 14.2813 19.1107 16ZM16 0C7.164 0 0 7.164 0 16C0 24.836 7.164 32 16 32C24.836 32 32 24.836 32 16C32 7.164 24.836 0 16 0ZM25.2773 19.848C25.124 23.2413 23.2347 25.1213 19.8493 25.2773C18.8533 25.3227 18.5347 25.3333 16 25.3333C13.4653 25.3333 13.148 25.3227 12.152 25.2773C8.76 25.1213 6.87867 23.2387 6.72267 19.848C6.67733 18.8533 6.66667 18.5347 6.66667 16C6.66667 13.4653 6.67733 13.148 6.72267 12.152C6.87867 8.76 8.76133 6.87867 12.152 6.724C13.148 6.67733 13.4653 6.66667 16 6.66667C18.5347 6.66667 18.8533 6.67733 19.8493 6.724C23.2427 6.88 25.1253 8.76667 25.2773 12.152C25.3227 13.148 25.3333 13.4653 25.3333 16C25.3333 18.5347 25.3227 18.8533 25.2773 19.848Z" fill="#000"/>
</g>
<defs>
<clipPath id="clip0_99_515">
<rect width="32" height="32" fill="white"/>
</clipPath>
</defs>
</svg>

<svg width="32" height="32" viewBox="0 0 32 32" fill="none" xmlns="http://www.w3.org/2000/svg"><g clip-path="url(#a)"><path d="M19.772 8.4027c-.984-.0454-1.28-.0534-3.772-.0534s-2.7867.0094-3.7707.0534c-2.532.116-3.7106 1.3146-3.8266 3.8266-.044.984-.0547 1.2787-.0547 3.7707s.0107 2.7867.0547 3.772c.116 2.5053 1.2893 3.7107 3.8266 3.8267.9827.044 1.2787.0546 3.7707.0546 2.4933 0 2.788-.0093 3.772-.0546 2.532-.1147 3.7093-1.3174 3.8267-3.8267.044-.984.0533-1.28.0533-3.772s-.0093-2.7867-.0533-3.7707c-.1174-2.5106-1.2974-3.7106-3.8267-3.8266ZM16 20.7933c-2.6467 0-4.7933-2.1453-4.7933-4.7933 0-2.6467 2.1466-4.792 4.7933-4.792 2.6467 0 4.7933 2.1453 4.7933 4.792 0 2.6467-2.1466 4.7933-4.7933 4.7933Zm4.9827-8.6546c-.6187 0-1.12-.5014-1.12-1.12 0-.6187.5013-1.12 1.12-1.12.6186 0 1.12.5013 1.12 1.12 0 .6173-.5014 1.12-1.12 1.12ZM19.1107 16c0 1.7187-1.3934 3.1107-3.1107 3.1107S12.8893 17.7187 12.8893 16c0-1.7187 1.3934-3.1107 3.1107-3.1107s3.1107 1.392 3.1107 3.1107ZM16 0C7.164 0 0 7.164 0 16s7.164 16 16 16 16-7.164 16-16S24.836 0 16 0Zm9.2773 19.848c-.1533 3.3933-2.0426 5.2733-5.428 5.4293-.996.0454-1.3146.056-3.8493.056s-2.852-.0106-3.848-.056c-3.392-.156-5.2733-2.0386-5.4293-5.4293-.0454-.9947-.056-1.3133-.056-3.848s.0106-2.852.056-3.848c.156-3.392 2.0386-5.2733 5.4293-5.428.996-.0467 1.3133-.0573 3.848-.0573s2.8533.0106 3.8493.0573c3.3934.156 5.276 2.0427 5.428 5.428.0454.996.056 1.3133.056 3.848s-.0106 2.8533-.056 3.848Z" fill="#000"/></g><defs><clipPath id="a"><path fill="#fff" d="M0 0h32v32H0z"/></clipPath></defs></svg>
